public/assets/images/planning-+-policy.svg

<svg viewBox="0 0 100 100" xmlns="http://www.w3.org/2000/svg"><path d="m46.6 60.6v7.7a1.1 1.1 0 0 0 1.1 1.1h13.2a1.1 1.1 0 0 0 1.1-1.1v-15.21a1.09 1.09 0 0 0 -.28-.93l-9.9-11a1.09 1.09 0 0 0 -.82-.37h-6.41a1.14 1.14 0 0 0 -.26 0 1.2 1.2 0 0 0 -.63.25v.06l-9.96 11.01a.58.58 0 0 0 -.16.19 1.09 1.09 0 0 0 -.15.56v15.44a1.1 1.1 0 0 0 1.1 1.1h6.6a1.1 1.1 0 0 0 1.1-1.1v-7.7h4.4" fill="#98c3d1"/><path d="m27.9 18.8c-5.15 0-9.9 4.11-9.9 9.35v42.33a1 1 0 0 0 .05.35c0 .08-.05.14-.05.22a9.37 9.37 0 0 0 9.35 9.35 1.33 1.33 0 0 0 .28 0 1.24 1.24 0 0 0 .27 0h39.6a1.1 1.1 0 0 0 1.1-1.1v-48.4a1.1 1.1 0 0 0 -1.1-1.1h-38.5v-9.9a1.1 1.1 0 0 0 -1.1-1.1zm-1.1 2.64v9.28a1.09 1.09 0 0 0 0 .36v30.83a10 10 0 0 0 -6.6 3.61v-37.37c0-3.47 3.12-6.15 6.6-6.71zm2.2 10.56h37.4v46.2h-38.5a1.24 1.24 0 0 0 -.27 0 1.33 1.33 0 0 0 -.28 0 7.14 7.14 0 0 1 -7.15-7.15c0-3.87 3.74-7.15 7.7-7.15a1.1 1.1 0 0 0 1.1-1.1zm22 8.79h-6.41a1.14 1.14 0 0 0 -.26 0 1.2 1.2 0 0 0 -.63.25v.06l-9.96 11.01a.58.58 0 0 0 -.16.19 1.09 1.09 0 0 0 -.15.56v15.44a1.1 1.1 0 0 0 1.1 1.1h6.6a1.1 1.1 0 0 0 1.1-1.1v-7.7h4.4v7.7a1.1 1.1 0 0 0 1.1 1.1h13.17a1.1 1.1 0 0 0 1.1-1.1v-15.21a1.09 1.09 0 0 0 -.28-.93l-9.9-11a1.09 1.09 0 0 0 -.82-.37zm-.49 2.21 7.93 8.8h-3.65l-7.91-8.8zm-6.11.55 7.43 8.25h-14.83zm-8.8 10.45h17.6v13.2h-4.4v-7.7a1.1 1.1 0 0 0 -1.1-1.1h-6.6a1.1 1.1 0 0 0 -1.1 1.1v7.7h-4.4zm19.8 0h4.4v13.2h-4.4z" fill="#98c3d1"/><path d="m27.9 18.8c-5.15 0-9.9 4.11-9.9 9.35v42.33a1 1 0 0 0 .05.35c0 .08-.05.14-.05.22a9.37 9.37 0 0 0 9.35 9.35 1.33 1.33 0 0 0 .28 0 1.24 1.24 0 0 0 .27 0h39.6a1.1 1.1 0 0 0 1.1-1.1v-48.4a1.1 1.1 0 0 0 -1.1-1.1h-38.5v-9.9a1.1 1.1 0 0 0 -1.1-1.1zm-1.1 2.64v9.28a1.09 1.09 0 0 0 0 .36v30.83a10 10 0 0 0 -6.6 3.61v-37.37c0-3.47 3.12-6.15 6.6-6.71zm2.2 10.56h37.4v46.2h-38.5a1.24 1.24 0 0 0 -.27 0 1.33 1.33 0 0 0 -.28 0 7.14 7.14 0 0 1 -7.15-7.15c0-3.87 3.74-7.15 7.7-7.15a1.1 1.1 0 0 0 1.1-1.1z" fill="#98c3d1"/><rect fill="#d49162" height="61.6" rx="1.1" transform="matrix(.92718385 -.37460659 .37460659 .92718385 -12.85 29.09)" width="13.2" x="61.8" y="16.8"/><path d="m53.61 22.73 8.16-3.3 1.64 4.08-4.07 1.65.82 2.04 4.08-1.65 1.65 4.08-6.12 2.47.82 2.05 6.12-2.48 1.65 4.08-4.08 1.65.82 2.04 4.08-1.65 1.65 4.08-6.12 2.47.83 2.04 6.12-2.47 1.64 4.08-4.08 1.65.83 2.04 4.08-1.65 1.65 4.08-6.12 2.47.82 2.04 6.12-2.47 1.65 4.08-4.08 1.65.82 2.04 4.08-1.65 1.65 4.08-6.12 2.47.82 2.04 6.12-2.47 1.65 4.08-8.16 3.3z" fill="#e7c55b"/><g fill="#fff"><path d="m59.59 24.26h4.4v2.2h-4.4z" transform="matrix(.92718385 -.37460659 .37460659 .92718385 -5 24.99)"/><path d="m59.93 30.75h6.6v2.2h-6.6z" transform="matrix(.92718385 -.37460659 .37460659 .92718385 -7.33 26)"/><path d="m64.53 36.49h4.4v2.2h-4.4z" transform="matrix(.92718385 -.37460659 .37460659 .92718385 -9.22 27.73)"/><path d="m64.87 42.98h6.6v2.2h-6.6z" transform="matrix(.92718385 -.37460659 .37460659 .92718385 -11.55 28.74)"/><path d="m69.47 48.71h4.4v2.2h-4.4z" transform="matrix(.92718385 -.37460659 .37460659 .92718385 -13.44 30.47)"/><path d="m69.8 55.21h6.6v2.2h-6.6z" transform="matrix(.92718385 -.37460659 .37460659 .92718385 -15.77 31.48)"/><path d="m74.43 61h4.4v2.2h-4.4z" transform="matrix(.92718385 -.37460659 .37460659 .92718385 -17.68 33.22)"/><path d="m74.77 67.49h6.6v2.2h-6.6z" transform="matrix(.92718385 -.37460659 .37460659 .92718385 -20.01 34.24)"/></g></svg>

<svg xmlns="http://www.w3.org/2000/svg" viewBox="0 0 100 100"><defs><style>.cls-1{isolation:isolate;}.cls-2{fill:#98c3d1;}.cls-2,.cls-3{mix-blend-mode:multiply;}.cls-3{fill:#d49162;}.cls-4{fill:#e7c55b;}.cls-5{fill:#fff;}</style></defs><title>planning-+-policy</title><g class="cls-1"><g id="Layer_1" data-name="Layer 1"><path class="cls-2" d="M46.6,60.6v7.7a1.1,1.1,0,0,0,1.1,1.1H60.9A1.1,1.1,0,0,0,62,68.3V53.09a1.09,1.09,0,0,0-.28-.93l-9.9-11a1.09,1.09,0,0,0-.82-.37l-6.41,0a1.14,1.14,0,0,0-.26,0,1.2,1.2,0,0,0-.63.25l0,0,0,0,0,0,0,0,0,.06L33.74,52.11a.58.58,0,0,0-.16.19l0,0a1.09,1.09,0,0,0-.15.56V68.3a1.1,1.1,0,0,0,1.1,1.1h6.6a1.1,1.1,0,0,0,1.1-1.1V60.6h4.4"/><path class="cls-2" d="M27.9,18.8c-5.15,0-9.9,4.11-9.9,9.35V70.48a1,1,0,0,0,.05.35c0,.08-.05.14-.05.22a9.37,9.37,0,0,0,9.35,9.35,1.33,1.33,0,0,0,.28,0,1.24,1.24,0,0,0,.27,0H67.5a1.1,1.1,0,0,0,1.1-1.1V30.9a1.1,1.1,0,0,0-1.1-1.1H29V19.9A1.1,1.1,0,0,0,27.9,18.8Zm-1.1,2.64v9.28a1.09,1.09,0,0,0,0,.36V61.91a10,10,0,0,0-6.6,3.61V28.15C20.2,24.68,23.32,22,26.8,21.44ZM29,32H66.4V78.2H27.9a1.24,1.24,0,0,0-.27,0,1.33,1.33,0,0,0-.28,0,7.14,7.14,0,0,1-7.15-7.15c0-3.87,3.74-7.15,7.7-7.15A1.1,1.1,0,0,0,29,62.8Zm22,8.79-6.41,0a1.14,1.14,0,0,0-.26,0,1.2,1.2,0,0,0-.63.25l0,0,0,0,0,0,0,0,0,.06L33.74,52.11a.58.58,0,0,0-.16.19l0,0a1.09,1.09,0,0,0-.15.56V68.3a1.1,1.1,0,0,0,1.1,1.1h6.6a1.1,1.1,0,0,0,1.1-1.1V60.6h4.4v7.7a1.1,1.1,0,0,0,1.1,1.1H60.9A1.1,1.1,0,0,0,62,68.3V53.09a1.09,1.09,0,0,0-.28-.93l-9.9-11A1.09,1.09,0,0,0,51,40.79ZM50.51,43l7.93,8.8H54.79L46.88,43Zm-6.11.55,7.43,8.25H37ZM35.6,54H53.2V67.2H48.8V59.5a1.1,1.1,0,0,0-1.1-1.1H41.1A1.1,1.1,0,0,0,40,59.5v7.7H35.6Zm19.8,0h4.4V67.2H55.4Z"/><path class="cls-2" d="M27.9,18.8c-5.15,0-9.9,4.11-9.9,9.35V70.48a1,1,0,0,0,.05.35c0,.08-.05.14-.05.22a9.37,9.37,0,0,0,9.35,9.35,1.33,1.33,0,0,0,.28,0,1.24,1.24,0,0,0,.27,0H67.5a1.1,1.1,0,0,0,1.1-1.1V30.9a1.1,1.1,0,0,0-1.1-1.1H29V19.9A1.1,1.1,0,0,0,27.9,18.8Zm-1.1,2.64v9.28a1.09,1.09,0,0,0,0,.36V61.91a10,10,0,0,0-6.6,3.61V28.15C20.2,24.68,23.32,22,26.8,21.44ZM29,32H66.4V78.2H27.9a1.24,1.24,0,0,0-.27,0,1.33,1.33,0,0,0-.28,0,7.14,7.14,0,0,1-7.15-7.15c0-3.87,3.74-7.15,7.7-7.15A1.1,1.1,0,0,0,29,62.8Z"/><rect class="cls-3" x="61.8" y="16.8" width="13.2" height="61.6" rx="1.1" ry="1.1" transform="translate(-12.85 29.09) rotate(-22)"/><polygon class="cls-4" points="53.61 22.73 61.77 19.43 63.41 23.51 59.34 25.16 60.16 27.2 64.24 25.55 65.89 29.63 59.77 32.1 60.59 34.15 66.71 31.67 68.36 35.75 64.28 37.4 65.1 39.44 69.18 37.79 70.83 41.87 64.71 44.34 65.54 46.38 71.66 43.91 73.3 47.99 69.22 49.64 70.05 51.68 74.13 50.03 75.78 54.11 69.66 56.58 70.48 58.62 76.6 56.15 78.25 60.23 74.17 61.88 74.99 63.92 79.07 62.27 80.72 66.35 74.6 68.82 75.42 70.86 81.54 68.39 83.19 72.47 75.03 75.77 53.61 22.73"/><rect class="cls-5" x="59.59" y="24.26" width="4.4" height="2.2" transform="translate(-5 24.99) rotate(-22)"/><rect class="cls-5" x="59.93" y="30.75" width="6.6" height="2.2" transform="translate(-7.33 26) rotate(-22)"/><rect class="cls-5" x="64.53" y="36.49" width="4.4" height="2.2" transform="translate(-9.22 27.73) rotate(-22)"/><rect class="cls-5" x="64.87" y="42.98" width="6.6" height="2.2" transform="translate(-11.55 28.74) rotate(-22)"/><rect class="cls-5" x="69.47" y="48.71" width="4.4" height="2.2" transform="translate(-13.44 30.47) rotate(-22)"/><rect class="cls-5" x="69.8" y="55.21" width="6.6" height="2.2" transform="translate(-15.77 31.48) rotate(-22)"/><rect class="cls-5" x="74.43" y="61" width="4.4" height="2.2" transform="translate(-17.68 33.22) rotate(-22)"/><rect class="cls-5" x="74.77" y="67.49" width="6.6" height="2.2" transform="translate(-20.01 34.24) rotate(-22)"/></g></g></svg>
